logos/sensu.svg

<?xml version="1.0" encoding="UTF-8"?>
<svg width="512px" height="174px" viewBox="0 0 512 174" version="1.1" xmlns="http://www.w3.org/2000/svg" xmlns:xlink="http://www.w3.org/1999/xlink" preserveAspectRatio="xMidYMid">
    <g>
        <path d="M26.4422987,111.296024 C28.6221534,109.9749 31.7267951,109.195437 35.7694348,109.195437 C40.5915377,109.195437 44.7200505,110.120224 48.2144237,111.943375 C51.7087969,113.766526 52.5212883,114.215708 58.2549668,119.368092 L68.5597347,107.464764 C64.1207578,102.550183 59.3118661,99.0227813 54.1462709,96.8495322 C48.9806757,94.676283 42.7185475,93.5929613 35.3863088,93.5929613 C28.5362804,93.5929613 22.6044332,94.676283 17.5841617,96.8165041 C12.5638901,98.9567251 8.76565835,101.93586 6.15643827,105.734092 C3.54721819,109.532323 2.19306599,113.872216 2.19306599,118.681108 C2.19306599,123.489999 3.38207767,127.466583 5.76010104,130.584436 C8.1381244,133.702289 11.4937796,136.179396 15.8006441,138.009153 C20.1075087,139.83891 25.6033849,141.397837 32.215611,142.725566 C37.5001073,143.742832 41.4634796,144.793125 43.7093906,145.949109 C45.9553015,147.105093 47.1707357,148.591357 47.1707357,150.32203 C47.1707357,152.594363 46.0874139,154.325036 43.9471929,155.507442 C41.8135775,156.729482 38.6626965,157.304171 34.3161983,157.304171 C29.0317019,157.304171 24.4077676,156.458651 20.5500852,154.661922 C16.7518535,152.964278 13.5283107,150.863691 9.4922766,146.86729 L0,159.787884 C3.96337228,164.226861 8.67978528,167.51646 14.1360278,169.656681 C19.5922703,171.796902 26.6470729,172.880224 35.4061257,172.880224 C41.648437,172.880224 47.2037638,171.929014 52.1579791,170.066229 C57.1121945,168.203444 60.9764825,165.488534 63.7838711,161.895077 C66.5912598,158.301619 67.9916514,154.060811 67.9916514,149.179257 C67.9916514,142.395285 65.7193179,137.143817 61.1746511,133.411641 C56.6299842,129.679466 49.0004926,126.832443 38.3522324,124.824335 C32.8233281,123.807069 28.926012,122.723747 26.6206504,121.501708 C24.3152889,120.279668 23.1593053,118.727347 23.1593053,116.785295 C23.1262772,114.446905 24.2162046,112.577514 26.3828481,111.157306 L26.4422987,111.296024 Z M103.827142,112.247233 C94.0970634,112.247233 86.5996842,114.889482 81.3680328,120.173978 C76.1363814,125.458474 73.4412883,132.922825 73.4412883,142.586848 C73.4412883,152.250871 76.0835364,159.708616 81.5463846,164.999718 C87.0092327,170.29082 94.7708367,172.926463 104.943492,172.926463 C111.793521,172.926463 117.494171,171.638367 122.270035,168.963091 C126.809144,166.550054 130.228594,162.462354 131.801945,157.568395 L115.697442,152.44904 C115.089725,154.549627 113.834657,156.148187 112.037929,157.231509 C110.2412,158.314831 107.876388,158.856491 104.983126,158.856491 C101.561415,158.856491 98.8134764,158.010972 96.7459172,156.214243 C94.678358,154.516599 93.3572339,151.808294 92.782545,148.142175 L132.594619,148.142175 C133.014783,145.986249 133.207402,143.792162 133.169308,141.596005 C133.169308,132.268869 130.659173,125.081954 125.638901,119.82388 C120.61863,114.671496 113.398686,112.095304 103.972466,112.095304 L103.827142,112.247233 Z M92.4985033,137.579788 C93.6544869,129.950296 97.4130849,126.152065 103.688424,126.152065 C109.963764,126.152065 113.491165,129.950296 114.435769,137.579788 L92.4985033,137.579788 Z M179.474708,112.247233 C174.897013,112.247233 170.860979,113.264499 167.439267,115.332058 C164.017556,117.399617 161.362097,120.484442 159.512523,124.626166 L158.937834,113.436245 L141.201743,113.436245 L141.201743,171.796902 L161.038421,171.796902 L161.038421,140.968471 C161.038421,136.390776 162.029264,132.962459 163.944894,130.762788 C165.847449,128.567745 168.638035,127.347167 171.541358,127.440161 C174.183606,127.440161 176.218137,128.28568 177.684585,129.950296 C179.111399,131.614913 179.864439,134.461935 179.864439,138.425307 L179.864439,171.823324 L199.707723,171.823324 L199.707723,132.896403 C199.707723,126.290783 197.877966,121.204455 194.211847,117.604392 C190.545728,114.004328 185.624541,112.319895 179.494525,112.319895 L179.474708,112.247233 Z M230.007704,126.726753 C231.566631,125.881234 233.73988,125.438658 236.613325,125.438658 C240.206782,125.438658 243.258579,126.046375 245.834771,127.301442 C248.410963,128.55651 250.61724,130.524985 252.480025,133.266318 L262.751765,123.225775 C260.109517,119.566261 256.648172,116.818323 252.407363,114.988566 C248.166555,113.158809 242.710313,112.240628 235.992396,112.240628 C229.915226,112.240628 224.762842,113.165415 220.535245,114.988566 C216.307648,116.811717 213.051077,119.23598 210.937278,122.175481 C208.82348,125.114982 207.786397,128.279074 207.786397,131.634729 C207.640232,136.23186 209.708954,140.61991 213.34833,143.432368 C217.047477,146.38508 223.25676,148.716864 231.962968,150.454142 C235.92634,151.233605 238.608222,152.013069 240.200177,152.858588 C241.792131,153.704107 242.604623,154.622289 242.604623,155.699005 C242.604623,157.020129 241.825159,157.944916 240.266233,158.684745 C238.707307,159.424575 236.567085,159.807701 233.858781,159.807701 C225.687629,159.807701 220.119091,157.806198 215.759381,152.409406 L206.333161,162.714174 C211.928121,169.564202 221.420398,172.985914 234.816596,172.985914 C243.839874,172.985914 250.72293,171.222213 255.465766,167.661783 C260.221812,164.134382 262.586624,159.523659 262.586624,153.829614 C262.586624,148.776315 260.690811,144.779914 256.925608,141.86023 C253.160404,138.940546 246.990755,136.740874 238.410054,135.281032 C234.446681,134.501569 231.659109,133.722106 230.067155,132.876586 C228.4752,132.031067 227.662709,131.079857 227.662709,129.890846 C227.695737,128.60275 228.4752,127.552456 230.001099,126.700331 L230.007704,126.726753 Z M333.187496,158.803646 C331.152965,158.803646 329.765785,158.261986 328.979716,157.178664 C328.193647,156.095342 327.823732,154.225951 327.823732,151.583703 L327.823732,113.403217 L307.987054,113.403217 L307.987054,147.858133 C307.577505,150.632494 306.698958,152.845377 305.305172,154.463754 C303.369725,156.670031 300.760505,157.786381 297.470906,157.786381 C294.828658,157.786381 292.714859,157.006918 291.393735,155.447991 C290.072611,153.889065 289.392232,151.207183 289.392232,147.375923 L289.392232,113.396611 L269.555554,113.396611 L269.555554,152.462251 C269.555554,159.550082 271.319255,164.735494 274.879684,168.051515 C278.440114,171.367537 283.288639,173.00573 289.53095,173.00573 C298.646707,173.00573 305.120215,169.504752 308.925052,162.56885 C309.638459,165.078986 310.688753,167.113517 312.181623,168.646021 C314.995617,171.552494 319.447805,173.018942 325.709934,173.018942 C327.94938,173.012255 330.1801,172.739513 332.355188,172.20645 C334.273182,171.756291 336.121773,171.049738 337.851064,170.105863 L339.13916,157.865648 C337.038573,158.546027 335.043675,158.882914 333.174285,158.882914 L333.187496,158.803646 Z" fill="#2B335B"></path>
        <path d="M512.002125,86.9313686 L425.070756,0 L338.069282,86.9313686 L425.070756,173.932843 L512.002125,86.9313686 Z M425.070756,23.1162661 L457.071782,55.1640292 C446.588607,52.3457703 435.806313,50.8969142 425.028693,50.8969142 C414.204335,50.8875667 403.426715,52.3224017 392.985603,55.1640292 L425.070756,23.1162661 Z M396.570354,122.199331 C405.295474,117.381189 415.103721,114.863986 425.070756,114.884815 C435.203402,114.884815 444.934107,117.432127 453.571159,122.199331 L425.070756,150.699734 L396.570354,122.199331 Z M465.456453,110.314037 C453.150523,102.476193 439.096618,98.5362389 425.028693,98.5362389 C410.704189,98.5286697 396.675877,102.615058 384.596259,110.314037 L362.162357,87.8801357 C380.305775,74.5506592 402.146113,67.3157259 425.103472,67.3157259 C448.060832,67.3157259 469.877801,74.5039219 488.044587,87.8801357 L465.456453,110.314037 Z" fill="#73CC58"></path>
    </g>
</svg>

<svg width="512" height="174" xmlns="http://www.w3.org/2000/svg" preserveAspectRatio="xMidYMid">
	<path d="M26.442 111.296c2.18-1.321 5.285-2.1 9.327-2.1 4.823 0 8.951.924 12.445 2.747 3.495 1.824 4.307 2.273 10.041 7.425l10.305-11.903c-4.44-4.915-9.248-8.442-14.414-10.615-5.165-2.174-11.427-3.257-18.76-3.257-6.85 0-12.782 1.083-17.802 3.224-5.02 2.14-8.818 5.119-11.428 8.917-2.609 3.798-3.963 8.138-3.963 12.947 0 4.809 1.19 8.786 3.567 11.903 2.378 3.118 5.734 5.595 10.04 7.425 4.308 1.83 9.803 3.389 16.416 4.717 5.284 1.017 9.247 2.067 11.493 3.223 2.246 1.156 3.462 2.642 3.462 4.373 0 2.272-1.084 4.003-3.224 5.185-2.133 1.222-5.284 1.797-9.63 1.797-5.285 0-9.91-.845-13.767-2.642-3.798-1.698-7.022-3.798-11.058-7.795L0 159.787c3.963 4.44 8.68 7.73 14.136 9.87 5.456 2.14 12.511 3.223 21.27 3.223 6.242 0 11.798-.951 16.752-2.814 4.954-1.863 8.818-4.577 11.626-8.17 2.807-3.594 4.208-7.835 4.208-12.717 0-6.784-2.273-12.035-6.817-15.767-4.545-3.733-12.175-6.58-22.823-8.588-5.529-1.017-9.426-2.1-11.731-3.322-2.306-1.222-3.462-2.775-3.462-4.717-.033-2.338 1.057-4.207 3.224-5.628l.06.139Zm77.385.951c-9.73 0-17.227 2.642-22.459 7.927-5.232 5.284-7.927 12.749-7.927 22.413s2.643 17.122 8.105 22.413c5.463 5.29 13.225 7.926 23.397 7.926 6.85 0 12.551-1.288 17.327-3.963a19.75 19.75 0 0 0 9.532-11.395l-16.105-5.119c-.607 2.1-1.862 3.7-3.66 4.783-1.796 1.083-4.16 1.624-7.054 1.624-3.422 0-6.17-.845-8.237-2.642-2.068-1.697-3.389-4.406-3.963-8.072h39.812c.42-2.156.612-4.35.574-6.546 0-9.327-2.51-16.514-7.53-21.772-5.02-5.153-12.24-7.729-21.667-7.729l-.145.152ZM92.5 137.58c1.155-7.63 4.914-11.428 11.19-11.428 6.275 0 9.802 3.798 10.747 11.428H92.499Zm86.976-25.333c-4.578 0-8.614 1.017-12.036 3.085-3.421 2.068-6.077 5.152-7.926 9.294l-.575-11.19h-17.736v58.36h19.836v-30.828c0-4.577.991-8.006 2.907-10.205a9.644 9.644 0 0 1 7.596-3.323c2.643 0 4.677.846 6.144 2.51 1.426 1.665 2.18 4.512 2.18 8.475v33.398h19.843v-38.927c0-6.605-1.83-11.692-5.496-15.292-3.666-3.6-8.587-5.284-14.717-5.284l-.02-.073Zm50.533 14.48c1.559-.846 3.732-1.288 6.605-1.288 3.594 0 6.646.607 9.222 1.862 2.576 1.256 4.782 3.224 6.645 5.965l10.272-10.04c-2.642-3.66-6.104-6.408-10.345-8.237-4.24-1.83-9.697-2.748-16.415-2.748-6.077 0-11.23.924-15.457 2.748-4.227 1.823-7.484 4.247-9.598 7.186-2.114 2.94-3.15 6.104-3.15 9.46a14.334 14.334 0 0 0 5.561 11.797c3.7 2.953 9.909 5.285 18.615 7.022 3.963.78 6.645 1.56 8.237 2.405 1.592.845 2.405 1.763 2.405 2.84 0 1.321-.78 2.246-2.339 2.986-1.559.74-3.699 1.123-6.407 1.123-8.171 0-13.74-2.002-18.1-7.399l-9.426 10.305c5.595 6.85 15.087 10.272 28.484 10.272 9.023 0 15.906-1.764 20.649-5.324 4.756-3.528 7.12-8.138 7.12-13.832 0-5.054-1.895-9.05-5.66-11.97-3.766-2.92-9.935-5.12-18.516-6.579-3.963-.78-6.75-1.559-8.343-2.404-1.592-.846-2.404-1.797-2.404-2.986.033-1.288.812-2.339 2.338-3.19l.007.026Zm103.18 32.077c-2.035 0-3.422-.542-4.208-1.625-.786-1.084-1.156-2.953-1.156-5.595v-38.18h-19.837v34.454c-.41 2.774-1.288 4.987-2.682 6.606-1.935 2.206-4.544 3.322-7.834 3.322-2.642 0-4.756-.78-6.077-2.338-1.321-1.559-2.002-4.24-2.002-8.072v-33.98h-19.836v39.066c0 7.088 1.763 12.273 5.324 15.59 3.56 3.316 8.409 4.954 14.651 4.954 9.116 0 15.59-3.501 19.394-10.437.713 2.51 1.764 4.545 3.257 6.077 2.814 2.906 7.266 4.373 13.528 4.373 2.24-.007 4.47-.28 6.645-.813a21.93 21.93 0 0 0 5.496-2.1l1.288-12.24c-2.1.68-4.095 1.017-5.965 1.017l.013-.08Z" fill="#2B335B"/>
	<path d="M512.002 86.931 425.071 0l-87.002 86.931 87.002 87.002 86.931-87.002Zm-86.931-63.815 32 32.048c-10.482-2.818-21.265-4.267-32.042-4.267a121.627 121.627 0 0 0-32.043 4.267l32.085-32.048Zm-28.5 99.083a58.704 58.704 0 0 1 28.5-7.314c10.132 0 19.863 2.547 28.5 7.314l-28.5 28.5-28.5-28.5Zm68.885-11.885a75.213 75.213 0 0 0-40.427-11.778 75.154 75.154 0 0 0-40.433 11.778L362.162 87.88c18.144-13.33 39.984-20.564 62.941-20.564 22.958 0 44.775 7.188 62.942 20.564l-22.589 22.434Z" fill="#73CC58"/>
</svg>
